data/styles/clear/style-clear/symbols/sports-m.svg

<svg height="24" viewBox="0 0 24 24" width="24"><g fill="none" fill-rule="evenodd"><circle cx="12" cy="12" fill="#fff" opacity=".6" r="12"/><circle cx="12" cy="12" fill="#8c5f93" r="11"/><path d="m6 6v4.9846154c0 .816.66184615 1.4769231 1.47692308 1.4769231h1.29876923c.03507692.7643077.62123077 1.5747692 1.34307689 1.8350769l1.1076923.5510769-.3332307 1.8230769-2.12400003.5907693v.7384615h6.46153843v-.7393846l-2.1230769-.5907692-.3341538-1.824 1.1076923-.5501539c.7227692-.2603077 1.308923-1.0707692 1.3430769-1.8350769h1.2987692c.8150769 0 1.4769231-.6618462 1.4769231-1.4769231v-4.9836923zm.92307692 4.9846154v-4.06153848h1.84615385v4.61538458h-1.29230769c-.30553846 0-.55384616-.2483077-.55384616-.5538461zm10.15384618 0c0 .3055384-.2483077.5538461-.5538462.5538461h-1.2923077v-4.61538458h1.8461539z" fill="#fff"/></g></svg>

<svg width="24" height="24" viewBox="0 0 24 24">
  <g fill="none" fill-rule="evenodd">
    <circle cx="12" cy="12" r="12" fill="#FFF" opacity=".6"/>
    <circle cx="12" cy="12" r="11" fill="#8C5F93"/>
    <path fill="#FFF" d="M6,6 L6,10.9846154 C6,11.8006154 6.66184615,12.4615385 7.47692308,12.4615385 L8.77569231,12.4615385 C8.81076923,13.2258462 9.39692308,14.0363077 10.1187692,14.2966154 L11.2264615,14.8476923 L10.8932308,16.6707692 L8.76923077,17.2615385 L8.76923077,18 L15.2307692,18 L15.2307692,17.2606154 L13.1076923,16.6698462 L12.7735385,14.8458462 L13.8812308,14.2956923 C14.604,14.0353846 15.1901538,13.2249231 15.2243077,12.4606154 L16.5230769,12.4606154 C17.3381538,12.4606154 18,11.7987692 18,10.9836923 L18,6 L6,6 L6,6 Z M6.92307692,10.9846154 L6.92307692,6.92307692 L8.76923077,6.92307692 L8.76923077,11.5384615 L7.47692308,11.5384615 C7.17138462,11.5384615 6.92307692,11.2901538 6.92307692,10.9846154 L6.92307692,10.9846154 Z M17.0769231,10.9846154 C17.0769231,11.2901538 16.8286154,11.5384615 16.5230769,11.5384615 L15.2307692,11.5384615 L15.2307692,6.92307692 L17.0769231,6.92307692 L17.0769231,10.9846154 L17.0769231,10.9846154 Z"/>
  </g>
</svg>
